X:1
T:Title
%%score { ( 1 4 ) | ( 2 3 ) }
L:1/8
Q:1/4=106
M:4/4
K:Bb
V:1 treble nm="Grand Piano"
V:4 treble 
V:2 bass 
V:3 bass 
V:1
 [DF]2 [Fd]2 [EFc]2 [DFB]2 | [CEA]2 [F,CE]2 [EA]2 [EG]2 | F3 G A2 B2 | c2 _d2 [F=d]4 | %4
w: J.~M.~Dungan * * *||||
 [DF]2 [Fd]2 [EFc]2 [DFB]2 | [CEA]2 [F,CE]2 [EA]2 [EG]2 | F3 e d2 [=Ec]2 | [EG]2 [EA]2 [DB]4 | %8
w: ||||
 [DF]2 [DG]2 [B,DF]3 [B,DF] | [B,D]-[B,DG]AB [EB]2 A2 | G2 e>A d2 c2 | G2 [CEA]2 [EG]2 [DF]2 | %12
w: ||||
 [B,DF]2 [DG]2 [B,DF]3 [B,DF] | [B,D]-[B,DG]AB [EB]2 A2 | G2 e>A d2 c2 | [DFB]6 z2 |] %16
w: ||||
V:2
 [B,,B,]2 z z/ A/ B,,2 B,,2 | C,2 C,2 [C,F,]2 [C,G,]2 | [F,A,E]3 [F,B,E] [F,CE]2 [F,DF]2 | %3
 [F,A,F]2 [F,A,F]2 [B,,B,]4 | [B,,B,]2 z z/ A/ B,,2 B,,2 | C,2 C,2 [C,F,]2 [C,G,]2 | %6
 [F,A,E]3 [F,CF] [F,B,F]2 [C,B,]2 | [F,A,]2 [F,C]2 [B,,B,]4 | [B,,B,]2 z z/ D/ B,,B,,D,F, | %9
 B,,2 [D,B,D]2 [C,C]2 [F,CE]2 | [F,CE]2 [F,F]->[F,CF] [F,B,F]2 [F,EF]2 | z4 B,4 | %12
 B,,2 z z/ D/ B,,B,,D,F, | B,,2 [D,B,D]2 [C,C]2 [F,CE]2 | [F,CE]2 [F,A,F]>[F,CF] [F,B,F]2 [F,EF]2 | %15
 B,B,F,D, B,,2 z2 |] %16
V:3
 z2 [B,,B,]2 z4 | x8 | x8 | x8 | z2 [B,,B,]2 z4 | x8 | x8 | x8 | z2 [B,,F,]2 z4 | x8 | z2 A,2 z4 | %11
 [F,CE]2 (3F,G,A, z F,D,B,, | z2 [B,,F,]2 z4 | x8 | x8 | x8 |] %16
V:4
 x8 | x8 | x8 | x8 | x8 | x8 | x8 | x8 | x8 | .F2 z2 z4 | x8 | x8 | x8 | .F2 z2 z4 | x8 | x8 |] %16

